img/mobile.svg

<?xml version="1.0" encoding="utf-8"?>
<!-- Generated by IcoMoon.io -->
<!DOCTYPE svg PUBLIC "-//W3C//DTD SVG 1.1//EN" "http://www.w3.org/Graphics/SVG/1.1/DTD/svg11.dtd">
<svg version="1.1" xmlns="http://www.w3.org/2000/svg" xmlns:xlink="http://www.w3.org/1999/xlink" width="12" height="28" viewBox="0 0 12 28">
<path fill="#FFFFFF" d="M7.25 22q0-0.516-0.367-0.883t-0.883-0.367-0.883 0.367-0.367 0.883 0.367 0.883 0.883 0.367 0.883-0.367 0.367-0.883zM10.5 19.5v-11q0-0.203-0.148-0.352t-0.352-0.148h-8q-0.203 0-0.352 0.148t-0.148 0.352v11q0 0.203 0.148 0.352t0.352 0.148h8q0.203 0 0.352-0.148t0.148-0.352zM7.5 6.25q0-0.25-0.25-0.25h-2.5q-0.25 0-0.25 0.25t0.25 0.25h2.5q0.25 0 0.25-0.25zM12 6v16q0 0.812-0.594 1.406t-1.406 0.594h-8q-0.812 0-1.406-0.594t-0.594-1.406v-16q0-0.812 0.594-1.406t1.406-0.594h8q0.812 0 1.406 0.594t0.594 1.406z"></path>
</svg>

<svg xmlns="http://www.w3.org/2000/svg" width="12" height="28" viewBox="0 0 12 28"><path d="M7.25 22q0-.516-.367-.883T6 20.75t-.883.367T4.75 22t.367.883.883.367.883-.367T7.25 22zm3.25-2.5v-11q0-.203-.148-.352T10 8H2q-.203 0-.352.148T1.5 8.5v11q0 .203.148.352T2 20h8q.203 0 .352-.148t.148-.352zm-3-13.25Q7.5 6 7.25 6h-2.5q-.25 0-.25.25t.25.25h2.5q.25 0 .25-.25zM12 6v16q0 .812-.594 1.406T10 24H2q-.812 0-1.406-.594T0 22V6q0-.812.594-1.406T2 4h8q.812 0 1.406.594T12 6z"/></svg>
